dist/img/partners/logo-5.svg

<svg width="56" height="26" viewBox="0 0 56 26" fill="none" xmlns="http://www.w3.org/2000/svg">
<path fill-rule="evenodd" clip-rule="evenodd" d="M9.98385 11.3644C9.80467 11.2048 9.55443 11.1514 9.32539 11.2237L3.09369 13.1901L11.9981 4.67253C12.2723 4.40968 12.2816 3.97405 12.019 3.6996C12.0062 3.68645 11.9935 3.6737 11.9796 3.66171L8.6554 0.691495C8.37158 0.438308 7.93674 0.463433 7.68377 0.747158C7.65478 0.780014 7.62892 0.81519 7.60655 0.852685L0.371155 13.003C0.2414 13.221 0.284266 13.5008 0.473878 13.6698L1.8838 14.9315C2.0572 15.0861 2.29701 15.1422 2.521 15.0799L7.56946 13.6728L1.75869 22.8035C1.47832 23.2445 2.0599 23.7223 2.43719 23.3605L12.1445 14.0548C12.355 13.8518 12.3612 13.5163 12.158 13.3057C12.1491 13.2964 12.1398 13.2875 12.1302 13.2786L9.98385 11.3644Z" fill="white"/>
<path fill-rule="evenodd" clip-rule="evenodd" d="M55.3035 10.0623L54.3394 9.20266C54.2086 9.08585 54.0079 9.09716 53.891 9.22797C53.8649 9.2576 53.8438 9.29185 53.8302 9.32928L51.8477 14.6773C50.898 17.2394 49.7723 18.1165 49.0663 18.1165C48.8407 18.1165 48.5196 17.9525 48.5196 17.4061C48.5196 17.2203 48.5523 16.8277 48.7822 16.2073L50.6708 11.1158C50.8088 10.7443 50.7047 10.3263 50.409 10.0627L49.4446 9.20266C49.3137 9.08585 49.113 9.09716 48.9961 9.22797C48.97 9.2576 48.949 9.29185 48.9354 9.32928L46.9532 14.6773C46.004 17.2394 44.8779 18.1165 44.1726 18.1165C43.9466 18.1165 43.6255 17.9525 43.6255 17.4061C43.6255 17.2203 43.6587 16.8277 43.8878 16.2073L48.0123 5.0741C48.1502 4.70292 48.0462 4.285 47.7508 4.02092L46.786 3.16093C46.6555 3.04408 46.4548 3.05577 46.3379 3.18625C46.3114 3.21585 46.2907 3.25052 46.2767 3.28752L42.0556 14.6773C41.7556 15.4863 41.6153 16.3089 41.6153 16.788C41.6153 18.4083 42.7091 19.3383 43.8874 19.3383C44.7707 19.3383 45.746 18.7732 46.6294 17.6098C46.9318 18.7132 47.8244 19.3383 48.7819 19.3383C49.3153 19.3383 49.8834 19.13 50.4449 18.712L49.0565 22.455C47.6211 21.775 45.9826 21.6582 44.4653 22.1287C44.2802 22.1852 44.3184 22.455 44.5093 22.4737C46.4845 22.6595 48.1097 23.5133 49.3094 25.1176C49.5249 25.4035 49.9313 25.4607 50.2169 25.2453C50.3159 25.171 50.3915 25.0701 50.4343 24.954L55.5642 11.1174C55.7029 10.7455 55.5996 10.3267 55.3035 10.0623Z" fill="white"/>
<path fill-rule="evenodd" clip-rule="evenodd" d="M34.6135 18.1084C34.2268 18.1084 33.9384 17.7282 33.9384 17.1619C33.9384 16.9726 33.9974 16.5217 34.2291 15.8899C35.5547 12.4319 37.3583 10.555 38.1672 10.555C38.7015 10.555 38.783 11.1111 38.783 11.7734C38.783 14.4726 36.3755 18.1064 34.6135 18.1064V18.1084ZM38.905 8.94131C37.9508 8.94131 37.0636 9.48938 36.2704 10.326L38.2955 4.81733C38.4348 4.43871 38.3297 4.01285 38.0315 3.74416L37.0554 2.86746C36.9235 2.7484 36.7205 2.75991 36.6029 2.89326C36.5761 2.92342 36.5553 2.95835 36.5411 2.99645L32.2788 14.602C31.9759 15.4267 31.8346 16.2645 31.8346 16.7527C31.8346 18.3243 32.9351 19.3514 34.431 19.3514C37.9607 19.3514 41.1457 15.1664 41.1457 11.7909C41.1437 10.1379 40.3478 8.94131 38.905 8.94131Z" fill="white"/>
<path fill-rule="evenodd" clip-rule="evenodd" d="M25.5955 18.1084C25.2083 18.1084 24.9195 17.7282 24.9195 17.1619C24.9195 16.9726 24.9786 16.5217 25.2106 15.8899C26.5379 12.4319 28.3438 10.555 29.1538 10.555C29.6892 10.555 29.7707 11.1111 29.7707 11.7734C29.77 14.4726 27.3616 18.1064 25.5951 18.1064L25.5955 18.1084ZM27.2549 10.326L29.2822 4.81733C29.4217 4.43871 29.3169 4.01285 29.0179 3.74416L28.0408 2.86746C27.9085 2.7484 27.7056 2.75991 27.5874 2.89326C27.5606 2.92342 27.5398 2.95835 27.5259 2.99645L23.2578 14.602C22.2965 17.2122 21.1591 18.1064 20.4453 18.1064C20.2168 18.1064 19.8925 17.9397 19.8925 17.3825C19.8925 17.1932 19.9256 16.7932 20.158 16.1609L22.066 10.9729C22.2059 10.5947 22.1007 10.1684 21.8021 9.89938L20.8266 9.02306C20.6947 8.90438 20.4914 8.91588 20.3736 9.04888C20.3468 9.07944 20.3259 9.11394 20.3117 9.15244L18.3073 14.602C17.3475 17.2127 16.209 18.1064 15.4956 18.1064C15.267 18.1064 14.9424 17.9397 14.9424 17.3825C14.9424 17.1932 14.9755 16.7932 15.2076 16.1609L17.1155 10.9729C17.255 10.5947 17.1498 10.1689 16.8504 9.89975L15.8757 9.02344C15.7437 8.90481 15.5409 8.91631 15.4226 9.04925C15.3958 9.07944 15.375 9.11475 15.3608 9.15281L13.3571 14.602C13.0542 15.4267 12.912 16.2645 12.912 16.7527C12.912 18.4041 14.0174 19.3514 15.2087 19.3514C16.1018 19.3514 17.0879 18.7756 17.9811 17.5905C18.2868 18.7149 19.1893 19.3514 20.1569 19.3514C21.0528 19.3514 22.0435 18.7724 22.9363 17.5802C23.2562 18.6704 24.1977 19.3514 25.4092 19.3514C28.9442 19.3514 32.1349 15.1664 32.1349 11.7909C32.1341 10.1379 31.3371 8.94131 29.8929 8.94131C28.9371 8.94131 28.0488 9.48938 27.2549 10.326Z" fill="white"/>
</svg>

<svg width="56" height="26" fill="none" xmlns="http://www.w3.org/2000/svg"><g clip-path="url(#clip0_2:245)" opacity=".3" fill-rule="evenodd" clip-rule="evenodd" fill="#fff"><path d="M9.984 11.364a.682.682 0 00-.659-.14L3.094 13.19l8.904-8.517a.689.689 0 00-.018-1.011L8.655.692a.688.688 0 00-1.048.16L.37 13.004a.53.53 0 00.103.667l1.41 1.261a.682.682 0 00.637.149l5.048-1.407-5.81 9.13c-.28.441.3.92.678.557l9.707-9.305a.53.53 0 00-.014-.776l-2.146-1.915zm45.319-1.302l-.964-.86a.318.318 0 00-.509.127l-1.982 5.348c-.95 2.562-2.076 3.44-2.782 3.44-.225 0-.546-.165-.546-.71 0-.187.032-.58.262-1.2l1.889-5.091a.962.962 0 00-.262-1.053l-.964-.86a.318.318 0 00-.51.126l-1.982 5.348c-.949 2.562-2.075 3.44-2.78 3.44-.226 0-.547-.165-.547-.71 0-.187.033-.58.262-1.2l4.124-11.133a.963.963 0 00-.261-1.053l-.965-.86a.318.318 0 00-.51.127l-4.22 11.39c-.3.808-.44 1.63-.44 2.11 0 1.62 1.093 2.55 2.271 2.55.884 0 1.859-.565 2.742-1.728.303 1.103 1.195 1.728 2.153 1.728.533 0 1.101-.208 1.663-.626l-1.389 3.743a6.339 6.339 0 00-4.59-.326c-.186.056-.148.326.043.345 1.975.186 3.6 1.04 4.8 2.644a.648.648 0 001.125-.164l5.13-13.837a.963.963 0 00-.26-1.055zm-20.689 8.046c-.387 0-.676-.38-.676-.946 0-.19.06-.64.291-1.272 1.326-3.458 3.13-5.335 3.938-5.335.535 0 .616.556.616 1.218 0 2.7-2.407 6.333-4.17 6.333v.002zm4.291-9.167c-.954 0-1.841.548-2.635 1.385l2.025-5.509a.987.987 0 00-.264-1.073l-.976-.877a.318.318 0 00-.514.13L32.28 14.601c-.303.825-.444 1.663-.444 2.15 0 1.572 1.1 2.6 2.596 2.6 3.53 0 6.715-4.186 6.715-7.561-.002-1.653-.798-2.85-2.241-2.85zm-13.309 9.167c-.388 0-.677-.38-.677-.946 0-.19.06-.64.292-1.272 1.327-3.458 3.133-5.335 3.943-5.335.535 0 .617.556.617 1.218-.001 2.7-2.41 6.333-4.176 6.333v.002zm1.659-7.782l2.027-5.509a.985.985 0 00-.264-1.073l-.977-.877a.32.32 0 00-.515.13l-4.268 11.605c-.961 2.61-2.099 3.504-2.813 3.504-.228 0-.553-.166-.553-.724 0-.189.034-.589.266-1.221l1.908-5.188a.986.986 0 00-.264-1.074l-.975-.876a.32.32 0 00-.515.13l-2.005 5.449c-.96 2.61-2.098 3.504-2.811 3.504-.229 0-.554-.166-.554-.724 0-.189.034-.589.266-1.221l1.908-5.188A.985.985 0 0016.85 9.9l-.974-.877a.32.32 0 00-.515.13l-2.004 5.449c-.303.825-.445 1.663-.445 2.15 0 1.652 1.105 2.6 2.297 2.6.893 0 1.879-.576 2.772-1.762.306 1.125 1.208 1.761 2.176 1.761.896 0 1.887-.579 2.78-1.77.32 1.09 1.26 1.77 2.472 1.77 3.535 0 6.726-4.185 6.726-7.56 0-1.653-.798-2.85-2.242-2.85-.956 0-1.844.548-2.638 1.385z"/></g><defs><clipPath id="clip0_2:245"><path fill="#fff" transform="translate(.297 .517)" d="M0 0h55.469v25H0z"/></clipPath></defs></svg>
